assets/img/braze_icons/bell-ringing-03.svg

<svg fill="none" height="24" viewBox="0 0 24 24" width="24" xmlns="http://www.w3.org/2000/svg"><g fill="#801ed7"><path clip-rule="evenodd" d="m15.2806 5.72147c.1417-.38041.2193-.79209.2193-1.22147 0-1.933-1.567-3.5-3.5-3.5s-3.49996 1.567-3.49996 3.5c0 .42938.07759.84107.21932 1.22148-.5859.27478-1.13137.6251-1.61688 1.04588-1.32464 1.14801-2.10243 2.73835-2.10243 4.43264 0 2.1077-.52026 3.5999-1.13272 4.6357l-.01015.0172c-.39379.6659-.70141 1.1862-.9077 1.5596-.10311.1866-.19385.3596-.25981.5078-.03272.0734-.0688.1616-.09692.2553-.02096.0698-.07254.2509-.05109.4703.01178.1205.0388.3598.17814.6041.13933.2442.33156.3893.42928.4608.15925.1164.3186.1664.39796.1883.09366.026.18468.0413.26014.0514.15088.0202.32656.0305.50967.0368.36505.0127.87547.0127 1.51863.0127h2.29058c.44404 1.7252 2.01014 3 3.87394 3 1.8639 0 3.43-1.2748 3.874-3h2.2906c.6431 0 1.1536 0 1.5186-.0127.1832-.0063.3588-.0166.5097-.0368.0755-.0101.1665-.0254.2602-.0514.0793-.0219.2387-.0719.3979-.1883.0977-.0715.29-.2166.4293-.4608.1393-.2443.1664-.4836.1781-.6041.0215-.2194-.0301-.4005-.0511-.4703-.0281-.0937-.0642-.1819-.0969-.2553-.0659-.1482-.1567-.3212-.2598-.5078-.2063-.3734-.5138-.8935-.9076-1.5595l-.0102-.0173c-.6125-1.0358-1.1327-2.528-1.1327-4.6357 0-1.69429-.7778-3.28463-2.1025-4.43264-.4855-.42078-1.031-.77111-1.6169-1.04589zm-3.2807-2.72147c-.8284 0-1.5.67157-1.5 1.5 0 .22109.0475.43048.1331.61912.4481-.07885.9059-.11912 1.367-.11912.461 0 .9188.04027 1.3669.11911.0856-.18863.133-.39803.133-.61911 0-.82843-.6715-1.5-1.5-1.5zm-1.7324 17c.3458.5978.9922 1 1.7324 1 .7403 0 1.3867-.4022 1.7325-1z" fill-rule="evenodd"/><path d="m5.07033 5.67396c.481-.2714.65091-.88134.37951-1.36234s-.88134-.65091-1.36234-.37951c-1.58139.89229-2.5587 2.58504-2.54075 4.40071.00546.55225.45758.99552 1.00984.99006s.99552-.45758.99006-1.00983c-.01074-1.08703.57691-2.10488 1.52368-2.63909z"/><path d="m18.55 4.31174c.2714-.481.8813-.65091 1.3623-.37951 1.5814.89229 2.5587 2.58504 2.5408 4.4007-.0055.55226-.4576.99553-1.0099.99007-.5522-.00546-.9955-.45758-.99-1.00983.0107-1.08703-.577-2.10488-1.5237-2.63909-.481-.2714-.6509-.88134-.3795-1.36234z"/></g></svg>

<svg width="24" height="24" viewBox="0 0 24 24" fill="none" xmlns="http://www.w3.org/2000/svg">
<path fill-rule="evenodd" clip-rule="evenodd" d="M15.2806 5.72147C15.4223 5.34106 15.4999 4.92938 15.4999 4.5C15.4999 2.567 13.9329 1 11.9999 1C10.0669 1 8.49994 2.567 8.49994 4.5C8.49994 4.92938 8.57753 5.34107 8.71926 5.72148C8.13336 5.99626 7.58789 6.34658 7.10238 6.76736C5.77774 7.91537 4.99995 9.50571 4.99995 11.2C4.99995 13.3077 4.47969 14.7999 3.86723 15.8357L3.85708 15.8529C3.46329 16.5188 3.15567 17.0391 2.94938 17.4125C2.84627 17.5991 2.75553 17.7721 2.68957 17.9203C2.65685 17.9937 2.62077 18.0819 2.59265 18.1756C2.57169 18.2454 2.52011 18.4265 2.54156 18.6459C2.55334 18.7664 2.58036 19.0057 2.7197 19.25C2.85903 19.4942 3.05126 19.6393 3.14898 19.7108C3.30823 19.8272 3.46758 19.8772 3.54694 19.8991C3.6406 19.9251 3.73162 19.9404 3.80708 19.9505C3.95796 19.9707 4.13364 19.981 4.31675 19.9873C4.6818 20 5.19222 20 5.83538 20H8.12596C8.57 21.7252 10.1361 23 11.9999 23C13.8638 23 15.4299 21.7252 15.8739 20H18.1645C18.8076 20 19.3181 20 19.6831 19.9873C19.8663 19.981 20.0419 19.9707 20.1928 19.9505C20.2683 19.9404 20.3593 19.9251 20.453 19.8991C20.5323 19.8772 20.6917 19.8272 20.8509 19.7108C20.9486 19.6393 21.1409 19.4942 21.2802 19.25C21.4195 19.0057 21.4466 18.7664 21.4583 18.6459C21.4798 18.4265 21.4282 18.2454 21.4072 18.1756C21.3791 18.0819 21.343 17.9937 21.3103 17.9203C21.2444 17.7721 21.1536 17.5991 21.0505 17.4125C20.8442 17.0391 20.5367 16.519 20.1429 15.853L20.1327 15.8357C19.5202 14.7999 19 13.3077 19 11.2C19 9.50571 18.2222 7.91537 16.8975 6.76736C16.412 6.34658 15.8665 5.99625 15.2806 5.72147ZM11.9999 3C11.1715 3 10.4999 3.67157 10.4999 4.5C10.4999 4.72109 10.5474 4.93048 10.633 5.11912C11.0811 5.04027 11.5389 5 12 5C12.461 5 12.9188 5.04027 13.3669 5.11911C13.4525 4.93048 13.4999 4.72108 13.4999 4.5C13.4999 3.67157 12.8284 3 11.9999 3ZM10.2675 20C10.6133 20.5978 11.2597 21 11.9999 21C12.7402 21 13.3866 20.5978 13.7324 20H10.2675Z" fill="#801ED7"/>
<path d="M5.07033 5.67396C5.55133 5.40256 5.72124 4.79262 5.44984 4.31162C5.17844 3.83062 4.5685 3.66071 4.0875 3.93211C2.50611 4.8244 1.5288 6.51715 1.54675 8.33282C1.55221 8.88507 2.00433 9.32834 2.55659 9.32288C3.10885 9.31742 3.55211 8.8653 3.54665 8.31305C3.53591 7.22602 4.12356 6.20817 5.07033 5.67396Z" fill="#801ED7"/>
<path d="M18.55 4.31174C18.8214 3.83074 19.4313 3.66083 19.9123 3.93223C21.4937 4.82452 22.471 6.51727 22.4531 8.33293C22.4476 8.88519 21.9955 9.32846 21.4432 9.323C20.891 9.31754 20.4477 8.86542 20.4532 8.31317C20.4639 7.22614 19.8762 6.20829 18.9295 5.67408C18.4485 5.40268 18.2786 4.79274 18.55 4.31174Z" fill="#801ED7"/>
</svg>
